svg/fluentui-system-icons/ic_fluent_calendar_add_24_regular.svg

<svg width="24" height="24" viewBox="0 0 24 24" fill="none" xmlns="http://www.w3.org/2000/svg">
<path d="M17.5 12C20.5376 12 23 14.4624 23 17.5C23 20.5376 20.5376 23 17.5 23C14.4624 23 12 20.5376 12 17.5C12 14.4624 14.4624 12 17.5 12ZM17.75 3C19.5449 3 21 4.45507 21 6.25L21.0012 12.0226C20.5378 11.7258 20.0342 11.4861 19.5004 11.3136L19.5 8.5H4.5V17.75C4.5 18.7165 5.2835 19.5 6.25 19.5L11.3136 19.5004C11.4861 20.0342 11.7258 20.5378 12.0226 21.0012L6.25 21C4.45507 21 3 19.5449 3 17.75V6.25C3 4.45507 4.45507 3 6.25 3H17.75ZM17.5 14L17.4101 14.0081C17.206 14.0451 17.0451 14.206 17.0081 14.4101L17 14.5V17H14.5L14.4101 17.0081C14.206 17.0451 14.0451 17.206 14.0081 17.4101L14 17.5L14.0081 17.5899C14.0451 17.794 14.206 17.9549 14.4101 17.9919L14.5 18H17V20.5L17.0081 20.5899C17.0451 20.794 17.206 20.9549 17.4101 20.9919L17.5 21L17.5899 20.9919C17.794 20.9549 17.9549 20.794 17.9919 20.5899L18 20.5V18H20.5L20.5899 17.9919C20.794 17.9549 20.9549 17.794 20.9919 17.5899L21 17.5L20.9919 17.4101C20.9549 17.206 20.794 17.0451 20.5899 17.0081L20.5 17H18V14.5L17.9919 14.4101C17.9549 14.206 17.794 14.0451 17.5899 14.0081L17.5 14ZM17.75 4.5H6.25C5.2835 4.5 4.5 5.2835 4.5 6.25V7H19.5V6.25C19.5 5.2835 18.7165 4.5 17.75 4.5Z" fill="#212121"/>
</svg>

<svg xmlns="http://www.w3.org/2000/svg" width="24" height="24"><path d="M17.5 12a5.5 5.5 0 1 1 0 11 5.5 5.5 0 0 1 0-11Zm.25-9A3.25 3.25 0 0 1 21 6.25l.001 5.773a6.473 6.473 0 0 0-1.5-.71L19.5 8.5h-15v9.25c0 .966.784 1.75 1.75 1.75h5.064c.172.534.412 1.038.709 1.501L6.25 21A3.25 3.25 0 0 1 3 17.75V6.25A3.25 3.25 0 0 1 6.25 3h11.5Zm-.25 11-.09.008a.5.5 0 0 0-.402.402L17 14.5V17h-2.5l-.09.008a.5.5 0 0 0-.402.402L14 17.5l.008.09a.5.5 0 0 0 .402.402l.09.008H17v2.5l.008.09a.5.5 0 0 0 .402.402l.09.008.09-.008a.5.5 0 0 0 .402-.402L18 20.5V18h2.5l.09-.008a.5.5 0 0 0 .402-.402L21 17.5l-.008-.09a.5.5 0 0 0-.402-.402L20.5 17H18v-2.5l-.008-.09a.5.5 0 0 0-.402-.402L17.5 14Zm.25-9.5H6.25A1.75 1.75 0 0 0 4.5 6.25V7h15v-.75a1.75 1.75 0 0 0-1.75-1.75Z"/></svg>
